src/actions/24/view-media-lyrics.svg

<svg xmlns="http://www.w3.org/2000/svg" viewBox="0 0 24 24">
    <path d="M4 4v1h16V4H4zm0 3v1h9V7H4zm13 2v6.5a2.477 2.477 0 0 0-1.5-.5 2.495 2.495 0 0 0-2.5 2.5c0 1.385 1.115 2.5 2.5 2.5s2.5-1.115 2.5-2.5V11h2c0-1.108-.892-2-2-2h-1zM4 10v1h11v-1H4zm0 3v1h9v-1H4zm0 3v1h7v-1H4zm0 3v1h7v-1H4z" style="fill:currentColor;fill-opacity:1;stroke:none;color:#050505;opacity:.7"/>
</svg>

<svg xmlns="http://www.w3.org/2000/svg" viewBox="0 0 24 24">
  <defs id="defs3051">
    <style type="text/css" id="current-color-scheme">
      .ColorScheme-Text {
        color:#363636;
      }
      </style>
  </defs>
 <path style="fill:currentColor;fill-opacity:1;stroke:none" 
     d="M 4 4 L 4 5 L 20 5 L 20 4 L 4 4 z M 4 7 L 4 8 L 13 8 L 13 7 L 4 7 z M 17 9 L 17 10 L 17 15.5 C 16.5818 15.1852 16.066 15 15.5 15 C 14.115 15 13 16.115 13 17.5 C 13 18.885 14.115 20 15.5 20 C 16.885 20 18 18.885 18 17.5 L 18 11 L 20 11 C 20 9.892 19.108 9 18 9 L 17 9 z M 4 10 L 4 11 L 15 11 L 15 10 L 4 10 z M 4 13 L 4 14 L 13 14 L 13 13 L 4 13 z M 4 16 L 4 17 L 11 17 L 11 16 L 4 16 z M 4 19 L 4 20 L 11 20 L 11 19 L 4 19 z "
     class="ColorScheme-Text"
     />
</svg>
